X: 2
T: Argeres
Z: Vokuhila
S: https://thesession.org/tunes/13887#setting30193
R: reel
M: 4/4
L: 1/8
K: Amin
T:Argiers
C:Mike Oldfield
P:Intro: || : Am Bm(add4) | Am7 Bm(add4) :||
|:"Am"cd ef/e/ "Bm(add4)"d2c2|"Am7"B2G2- "Bm(add4)"G4|"Am"g2d2 "Bm(add4)"g3f|"Am7"e2c2 "Bm(add4)"c4|
"Am"cd ef/e/ "Bm(add4)"d2c2|"Am9"B2>c2 "F/A"d2G2|"Am"AB cd/c/ "Bm(add4)"Bc d/c/d/e/|1"Fmaj7"c4- "G6"c4:|2"Fmaj7"c4- c3d/c/||
|:"G"Bcd2- d4|g2d2 g2d>c|Bcd2- d4|g2d2 g4|
"Dm"g2fe f2gf|"Am"e2dc "G"d3G|"Am"AB cd/c/ "Em"Bc d/c/d/e/|1"Fmaj7"c4- c3d/c/:||2"Fmaj7"c4- "G6""2x, to coda"c4||
!coda!"Fmaj7"c4- "G6"c4|"Am"c2 z2 z4|]
